source/assets/ui/icon_link.svg

<?xml version="1.0" encoding="UTF-8" standalone="no"?>
<!-- Created with Inkscape (http://www.inkscape.org/) -->

<svg
   width="24"
   height="24"
   viewBox="0 0 24 24"
   version="1.1"
   id="SVGRoot"
   xml:space="preserve"
   xmlns="http://www.w3.org/2000/svg"
   xmlns:svg="http://www.w3.org/2000/svg"
   xmlns:rdf="http://www.w3.org/1999/02/22-rdf-syntax-ns#"
   xmlns:cc="http://creativecommons.org/ns#"
   xmlns:dc="http://purl.org/dc/elements/1.1/"><defs
     id="defs1725"><clipPath
       id="clipPath4439-1-0"><path
         d="m 76.965,496.958 h 257.093 v 52.963 H 76.965 Z"
         id="path4441-7-0" /></clipPath></defs><metadata
     id="metadata2103"><rdf:RDF><cc:Work
         rdf:about=""><dc:creator><cc:Agent><dc:title>NinStar</dc:title></cc:Agent></dc:creator></cc:Work></rdf:RDF></metadata><path
     id="path1358-8"
     style="color:#000000;fill:#ffffff;stroke-width:1;stroke-linejoin:round;stroke-dashoffset:9.6;-inkscape-stroke:none;paint-order:markers stroke fill"
     d="m 5.7500002,5.0000001 a 0.75007506,0.75007506 0 0 0 -0.75,0.75 V 18.25 a 0.75007506,0.75007506 0 0 0 0.75,0.75 H 18.25 A 0.75007506,0.75007506 0 0 0 19,18.25 V 14.083985 H 17.5 V 17.5 H 6.5000002 V 6.5000001 h 3.4160146 v -1.5 z m 7.2910148,0 v 1.5 H 16.4375 l -6.009766,6.0097659 1.0625,1.0625 L 17.5,7.5625001 V 10.958985 H 19 V 5.0000001 Z" /></svg>

<?xml version="1.0" encoding="UTF-8"?>
<svg id="a" width="24" height="24" version="1.1" viewBox="0 0 24 24" xml:space="preserve" xmlns="http://www.w3.org/2000/svg" xmlns:cc="http://creativecommons.org/ns#" xmlns:dc="http://purl.org/dc/elements/1.1/" xmlns:rdf="http://www.w3.org/1999/02/22-rdf-syntax-ns#"><metadata><rdf:RDF><cc:Work rdf:about=""><dc:creator><cc:Agent><dc:title>NinStar</dc:title></cc:Agent></dc:creator></cc:Work></rdf:RDF></metadata><path d="m5.75 5a0.75008 0.75008 0 0 0-0.75 0.75v12.5a0.75008 0.75008 0 0 0 0.75 0.75h12.5a0.75008 0.75008 0 0 0 0.75-0.75v-4.166h-1.5v3.416h-11v-11h3.416v-1.5zm7.291 0v1.5h3.3965l-6.0098 6.0098 1.0625 1.0625 6.0098-6.0098v3.3965h1.5v-5.959z" color="#000000" fill="#fff" stroke-dashoffset="9.6" stroke-linejoin="round" style="-inkscape-stroke:none;paint-order:markers stroke fill"/></svg>
